X: 42825
T: Whycocomagh Bay
R: reel
M: 4/4
K: Dmajor
A|FD D/D/D FGAB|=cCGF ECGE|FD D/D/D FGAd|=cCGE D/D/D DA|
FD D/D/D FGAB|=cCGF ECGE|FDAD FGAd|=cCGE D/D/D Dg|
fddc defa|g=cge cdeg|fddc defa|=cAGE D/D/D Dg|
fddc defa|g=cge cdeg|fadf eg=ce|fage d/d/d d||

